packages/kaspersky-hexa-ui-icons/src/iconsSVGs/24/Diamond.svg

<svg width="24" height="24" viewBox="0 0 24 24" fill="none" xmlns="http://www.w3.org/2000/svg">
<path fill-rule="evenodd" clip-rule="evenodd" d="M6.68077 3.42654C6.8679 3.15921 7.17369 3 7.5 3H16.5C16.8263 3 17.1321 3.15921 17.3192 3.42654L20.8192 8.42654C21.0641 8.77629 21.0598 9.2429 20.8087 9.58817L12.8087 20.5882C12.6206 20.8469 12.3199 21 12 21C11.6801 21 11.3794 20.8469 11.1913 20.5882L3.19126 9.58817C2.94016 9.2429 2.93594 8.77629 3.18077 8.42654L6.68077 3.42654ZM8.02066 5L5.92066 8H18.0793L15.9793 5H8.02066ZM18.0362 10H5.96377L12 18.2998L18.0362 10Z" fill="black"/>
</svg>

<svg xmlns="http://www.w3.org/2000/svg" width="24" height="24" fill="none" viewBox="0 0 24 24"><path fill="#000" fill-rule="evenodd" d="M6.6808 3.4265A1 1 0 0 1 7.5 3h9a1 1 0 0 1 .8192.4265l3.5 5a1 1 0 0 1-.0105 1.1617l-8 11a1 1 0 0 1-1.6174 0l-8-11a1 1 0 0 1-.0105-1.1617zM8.0207 5l-2.1 3h12.1586l-2.1-3zm10.0155 5H5.9638L12 18.2998z"/></svg>
